austria/municipalities/20918.svg

<svg xmlns="http://www.w3.org/2000/svg" width="850" height="850" style="shape-rendering:geometricPrecision;text-rendering:geometricPrecision;image-rendering:optimizeQuality;fill-rule:evenodd;clip-rule:evenodd"><path style="opacity:1" fill="#c8c7c7" d="M837.5 17.5v-6h-826v4c-.951-1.419-1.284-3.085-1-5h828c.302 2.56-.032 4.893-1 7z"/><path style="opacity:1" fill="#272324" d="M837.5 17.5a103840.317 103840.317 0 0 1-31.5 454c-9.65 136.46-71.817 240.96-186.5 313.5-103.31 58.664-211.31 68.997-324 31-42.963-15.63-81.63-38.13-116-67.5-.473-1.406-1.473-2.073-3-2-2-1.333-3.667-3-5-5-.473-1.406-1.473-2.073-3-2C94.45 670.058 52.95 584.391 44 482.5a96118.408 96118.408 0 0 1-32.5-467v-4h826v6z"/><path style="opacity:1" fill="#752227" d="M424.5 29.5v-1h395c.295 2.235-.039 4.235-1 6v-5h-394z"/><path style="opacity:1" fill="#fbfbfb" d="M424.5 28.5v8h-386c-.285 1.915.049 3.581 1 5a10498.24 10498.24 0 0 0 8 118h116a9053.923 9053.923 0 0 1-58 176l-56-169a42.584 42.584 0 0 0-1.5-5c-.8 2.867-.634 5.534.5 8 4.286 65.666 8.619 131.332 13 197 34.007-.333 68.007 0 102 1a17619.123 17619.123 0 0 0-57.5 176l-39-117c-.442 49.614 7.058 97.947 22.5 145 24.658 1 49.324 1.333 74 1a6919.608 6919.608 0 0 1-29 89c61.214 83.936 143.547 133.436 247 148.5a300.84 300.84 0 0 0 43 2.5v8c-129.259-3.861-230.425-58.528-303.5-164-31.826-50.473-51.16-105.473-58-165a125976.727 125976.727 0 0 1-32.5-463h394z"/><path style="opacity:1" fill="#c8252f" d="M424.5 29.5h394v5c-2.82 41.686-5.82 83.353-9 125h-385v-130z"/><path style="opacity:1" fill="#918f90" d="M424.5 36.5v1h-385v4c-.951-1.419-1.285-3.085-1-5h386z"/><path style="opacity:1" fill="#231f20" d="M424.5 37.5v775a300.84 300.84 0 0 1-43-2.5c-103.453-15.064-185.786-64.564-247-148.5a6919.608 6919.608 0 0 0 29-89c-24.676.333-49.342 0-74-1-15.442-47.053-22.942-95.386-22.5-145l39 117a17619.123 17619.123 0 0 1 57.5-176c-33.993-1-67.993-1.333-102-1-4.381-65.668-8.714-131.334-13-197-.237-1.291.096-2.291 1-3l56 169a9053.923 9053.923 0 0 0 58-176h-116a10498.24 10498.24 0 0 1-8-118v-4h385z"/><path style="opacity:1" fill="#918f90" d="M289.5 160.5c-38.681-.661-77.015.006-115 2-.904-.709-1.237-1.709-1-3a3363.08 3363.08 0 0 1 116 1z"/><path style="opacity:1" fill="#908e8f" d="M415.5 161.5a1654.038 1654.038 0 0 0-115 0c-.543-.06-.876-.393-1-1 39-1.333 78-1.333 117 0-.124.607-.457.94-1 1z"/><path style="opacity:1" fill="#fefefe" d="M289.5 160.5c-19.161 58.637-38.328 117.303-57.5 176a17695.913 17695.913 0 0 1-57.5-174c37.985-1.994 76.319-2.661 115-2zM415.5 161.5a53658.61 53658.61 0 0 1-57.5 175 10731.774 10731.774 0 0 1-57.5-175 1654.038 1654.038 0 0 1 115 0z"/><path style="opacity:1" fill="#d6b0b1" d="M424.5 159.5h385v1h-384v101h-1v-102z"/><path style="opacity:1" fill="#fefefe" d="M809.5 160.5a5131.805 5131.805 0 0 1-7 101h-377v-101h384z"/><path style="opacity:1" fill="#848283" d="M49.5 166.5c-.904.709-1.237 1.709-1 3-1.134-2.466-1.3-5.133-.5-8a42.584 42.584 0 0 1 1.5 5z"/><path style="opacity:1" fill="#b83d43" d="M424.5 261.5h378v1h-377v104h-1v-105z"/><path style="opacity:1" fill="#c8252f" d="M802.5 262.5a4752.956 4752.956 0 0 1-8 104h-369v-104h377z"/><path style="opacity:1" fill="#fefefe" d="M173.5 367.5a3363.08 3363.08 0 0 1 116-1 54730.368 54730.368 0 0 1-57.5 177 18116.455 18116.455 0 0 0-58.5-176zM299.5 367.5a3363.08 3363.08 0 0 1 116-1 54730.368 54730.368 0 0 1-57.5 177 18135.145 18135.145 0 0 0-58.5-176zM425.5 366.5h369a5435.766 5435.766 0 0 1-6 98c-.904.709-1.237 1.709-1 3h-362v-101z"/><path style="opacity:1" fill="#eac8ca" d="M424.5 366.5h1v101h362c-.237-1.291.096-2.291 1-3 .268 1.599-.066 2.932-1 4h-363v-102z"/><path style="opacity:1" fill="#c8252f" d="M424.5 468.5h363c-1.303 35.837-7.969 70.503-20 104h-343v-104z"/><path style="opacity:1" fill="#908e8f" d="M289.5 573.5c-38.681-.661-77.015.006-115 2-.904-.709-1.237-1.709-1-3a3363.08 3363.08 0 0 1 116 1zM415.5 574.5a1654.038 1654.038 0 0 0-115 0c-.543-.06-.876-.393-1-1 39-1.333 78-1.333 117 0-.124.607-.457.94-1 1z"/><path style="opacity:1" fill="#fefefe" d="M289.5 573.5a54393.198 54393.198 0 0 0-57.5 176 17695.913 17695.913 0 0 1-57.5-174c37.985-1.994 76.319-2.661 115-2zM415.5 574.5a53541.395 53541.395 0 0 1-57.5 175 53603.389 53603.389 0 0 1-57.5-175 1654.038 1654.038 0 0 1 115 0z"/><path style="opacity:1" fill="#d6b0b2" d="M424.5 572.5h343v1h-342v101h-1v-102z"/><path style="opacity:1" fill="#fefefe" d="M767.5 573.5c-11.673 37.022-29.34 70.688-53 101h-289v-101h342z"/><path style="opacity:1" fill="#b63b41" d="M424.5 674.5h290v1h-289c.332 45.836-.001 91.503-1 137v-138z"/><path style="opacity:1" fill="#c8252f" d="M714.5 675.5c-68.283 87.656-158.283 135.823-270 144.5-6.658.5-13.325.666-20 .5v-8a4692.363 4692.363 0 0 0 1-137h289z"/><path style="opacity:1" fill="#908e8e" d="M168.5 739.5c1.527-.073 2.527.594 3 2-1.527.073-2.527-.594-3-2z"/><path style="opacity:1" fill="#929091" d="M176.5 746.5c1.527-.073 2.527.594 3 2-1.527.073-2.527-.594-3-2z"/></svg>

<?xml version="1.0" encoding="UTF-8"?>
<!DOCTYPE svg PUBLIC "-//W3C//DTD SVG 1.1//EN" "http://www.w3.org/Graphics/SVG/1.1/DTD/svg11.dtd">
<svg xmlns="http://www.w3.org/2000/svg" version="1.1" width="850px" height="850px" style="shape-rendering:geometricPrecision; text-rendering:geometricPrecision; image-rendering:optimizeQuality; fill-rule:evenodd; clip-rule:evenodd" xmlns:xlink="http://www.w3.org/1999/xlink">
<g><path style="opacity:1" fill="#c8c7c7" d="M 837.5,17.5 C 837.5,15.5 837.5,13.5 837.5,11.5C 562.167,11.5 286.833,11.5 11.5,11.5C 11.5,12.8333 11.5,14.1667 11.5,15.5C 10.5489,14.0813 10.2155,12.4147 10.5,10.5C 286.5,10.5 562.5,10.5 838.5,10.5C 838.802,13.0593 838.468,15.3926 837.5,17.5 Z"/></g>
<g><path style="opacity:1" fill="#272324" d="M 837.5,17.5 C 827.332,168.851 816.832,320.184 806,471.5C 796.35,607.96 734.183,712.46 619.5,785C 516.19,843.664 408.19,853.997 295.5,816C 252.537,800.37 213.87,777.87 179.5,748.5C 179.027,747.094 178.027,746.427 176.5,746.5C 174.5,745.167 172.833,743.5 171.5,741.5C 171.027,740.094 170.027,739.427 168.5,739.5C 94.4507,670.058 52.9507,584.391 44,482.5C 32.7872,326.854 21.9539,171.188 11.5,15.5C 11.5,14.1667 11.5,12.8333 11.5,11.5C 286.833,11.5 562.167,11.5 837.5,11.5C 837.5,13.5 837.5,15.5 837.5,17.5 Z"/></g>
<g><path style="opacity:1" fill="#752227" d="M 424.5,29.5 C 424.5,29.1667 424.5,28.8333 424.5,28.5C 556.167,28.5 687.833,28.5 819.5,28.5C 819.795,30.7354 819.461,32.7354 818.5,34.5C 818.5,32.8333 818.5,31.1667 818.5,29.5C 687.167,29.5 555.833,29.5 424.5,29.5 Z"/></g>
<g><path style="opacity:1" fill="#fbfbfb" d="M 424.5,28.5 C 424.5,28.8333 424.5,29.1667 424.5,29.5C 424.5,31.8333 424.5,34.1667 424.5,36.5C 295.833,36.5 167.167,36.5 38.5,36.5C 38.2155,38.4147 38.5489,40.0813 39.5,41.5C 41.9455,80.8542 44.6122,120.188 47.5,159.5C 86.1667,159.5 124.833,159.5 163.5,159.5C 144.768,218.361 125.435,277.028 105.5,335.5C 86.8307,279.159 68.1641,222.826 49.5,166.5C 49.1077,164.821 48.6077,163.154 48,161.5C 47.1993,164.367 47.3659,167.034 48.5,169.5C 52.7856,235.166 57.119,300.832 61.5,366.5C 95.5065,366.167 129.507,366.5 163.5,367.5C 144.025,426.065 124.859,484.732 106,543.5C 93.0146,504.544 80.0146,465.544 67,426.5C 66.5581,476.114 74.0581,524.447 89.5,571.5C 114.158,572.5 138.824,572.833 163.5,572.5C 154.039,602.216 144.373,631.882 134.5,661.5C 195.714,745.436 278.047,794.936 381.5,810C 395.775,811.861 410.109,812.694 424.5,812.5C 424.5,815.167 424.5,817.833 424.5,820.5C 295.241,816.639 194.075,761.972 121,656.5C 89.1735,606.027 69.8402,551.027 63,491.5C 51.8821,337.183 41.0488,182.85 30.5,28.5C 161.833,28.5 293.167,28.5 424.5,28.5 Z"/></g>
<g><path style="opacity:1" fill="#c8252f" d="M 424.5,29.5 C 555.833,29.5 687.167,29.5 818.5,29.5C 818.5,31.1667 818.5,32.8333 818.5,34.5C 815.68,76.1859 812.68,117.853 809.5,159.5C 681.167,159.5 552.833,159.5 424.5,159.5C 424.5,118.833 424.5,78.1667 424.5,37.5C 424.5,37.1667 424.5,36.8333 424.5,36.5C 424.5,34.1667 424.5,31.8333 424.5,29.5 Z"/></g>
<g><path style="opacity:1" fill="#918f90" d="M 424.5,36.5 C 424.5,36.8333 424.5,37.1667 424.5,37.5C 296.167,37.5 167.833,37.5 39.5,37.5C 39.5,38.8333 39.5,40.1667 39.5,41.5C 38.5489,40.0813 38.2155,38.4147 38.5,36.5C 167.167,36.5 295.833,36.5 424.5,36.5 Z"/></g>
<g><path style="opacity:1" fill="#231f20" d="M 424.5,37.5 C 424.5,78.1667 424.5,118.833 424.5,159.5C 424.5,193.5 424.5,227.5 424.5,261.5C 424.5,296.5 424.5,331.5 424.5,366.5C 424.5,400.5 424.5,434.5 424.5,468.5C 424.5,503.167 424.5,537.833 424.5,572.5C 424.5,606.5 424.5,640.5 424.5,674.5C 424.5,720.5 424.5,766.5 424.5,812.5C 410.109,812.694 395.775,811.861 381.5,810C 278.047,794.936 195.714,745.436 134.5,661.5C 144.373,631.882 154.039,602.216 163.5,572.5C 138.824,572.833 114.158,572.5 89.5,571.5C 74.0581,524.447 66.5581,476.114 67,426.5C 80.0146,465.544 93.0146,504.544 106,543.5C 124.859,484.732 144.025,426.065 163.5,367.5C 129.507,366.5 95.5065,366.167 61.5,366.5C 57.119,300.832 52.7856,235.166 48.5,169.5C 48.2627,168.209 48.596,167.209 49.5,166.5C 68.1641,222.826 86.8307,279.159 105.5,335.5C 125.435,277.028 144.768,218.361 163.5,159.5C 124.833,159.5 86.1667,159.5 47.5,159.5C 44.6122,120.188 41.9455,80.8542 39.5,41.5C 39.5,40.1667 39.5,38.8333 39.5,37.5C 167.833,37.5 296.167,37.5 424.5,37.5 Z"/></g>
<g><path style="opacity:1" fill="#918f90" d="M 289.5,160.5 C 250.819,159.839 212.485,160.506 174.5,162.5C 173.596,161.791 173.263,160.791 173.5,159.5C 212.337,159.168 251.004,159.501 289.5,160.5 Z"/></g>
<g><path style="opacity:1" fill="#908e8f" d="M 415.5,161.5 C 377.167,160.167 338.833,160.167 300.5,161.5C 299.957,161.44 299.624,161.107 299.5,160.5C 338.5,159.167 377.5,159.167 416.5,160.5C 416.376,161.107 416.043,161.44 415.5,161.5 Z"/></g>
<g><path style="opacity:1" fill="#fefefe" d="M 289.5,160.5 C 270.339,219.137 251.172,277.803 232,336.5C 212.525,278.576 193.359,220.576 174.5,162.5C 212.485,160.506 250.819,159.839 289.5,160.5 Z"/></g>
<g><path style="opacity:1" fill="#fefefe" d="M 415.5,161.5 C 396.44,219.847 377.273,278.18 358,336.5C 338.335,278.338 319.168,220.004 300.5,161.5C 338.833,160.167 377.167,160.167 415.5,161.5 Z"/></g>
<g><path style="opacity:1" fill="#d6b0b1" d="M 424.5,159.5 C 552.833,159.5 681.167,159.5 809.5,159.5C 809.5,159.833 809.5,160.167 809.5,160.5C 681.5,160.5 553.5,160.5 425.5,160.5C 425.5,194.167 425.5,227.833 425.5,261.5C 425.167,261.5 424.833,261.5 424.5,261.5C 424.5,227.5 424.5,193.5 424.5,159.5 Z"/></g>
<g><path style="opacity:1" fill="#fefefe" d="M 809.5,160.5 C 807.499,194.191 805.165,227.858 802.5,261.5C 676.833,261.5 551.167,261.5 425.5,261.5C 425.5,227.833 425.5,194.167 425.5,160.5C 553.5,160.5 681.5,160.5 809.5,160.5 Z"/></g>
<g><path style="opacity:1" fill="#848283" d="M 49.5,166.5 C 48.596,167.209 48.2627,168.209 48.5,169.5C 47.3659,167.034 47.1993,164.367 48,161.5C 48.6077,163.154 49.1077,164.821 49.5,166.5 Z"/></g>
<g><path style="opacity:1" fill="#b83d43" d="M 424.5,261.5 C 424.833,261.5 425.167,261.5 425.5,261.5C 551.167,261.5 676.833,261.5 802.5,261.5C 802.5,261.833 802.5,262.167 802.5,262.5C 676.833,262.5 551.167,262.5 425.5,262.5C 425.5,297.167 425.5,331.833 425.5,366.5C 425.167,366.5 424.833,366.5 424.5,366.5C 424.5,331.5 424.5,296.5 424.5,261.5 Z"/></g>
<g><path style="opacity:1" fill="#c8252f" d="M 802.5,262.5 C 800.202,297.344 797.536,332.011 794.5,366.5C 671.5,366.5 548.5,366.5 425.5,366.5C 425.5,331.833 425.5,297.167 425.5,262.5C 551.167,262.5 676.833,262.5 802.5,262.5 Z"/></g>
<g><path style="opacity:1" fill="#fefefe" d="M 173.5,367.5 C 211.996,366.501 250.663,366.168 289.5,366.5C 270.44,425.512 251.274,484.512 232,543.5C 212.768,484.636 193.268,425.97 173.5,367.5 Z"/></g>
<g><path style="opacity:1" fill="#fefefe" d="M 299.5,367.5 C 337.996,366.501 376.663,366.168 415.5,366.5C 396.44,425.512 377.274,484.512 358,543.5C 338.764,484.625 319.264,425.959 299.5,367.5 Z"/></g>
<g><path style="opacity:1" fill="#fefefe" d="M 425.5,366.5 C 548.5,366.5 671.5,366.5 794.5,366.5C 792.795,399.185 790.795,431.852 788.5,464.5C 787.596,465.209 787.263,466.209 787.5,467.5C 666.833,467.5 546.167,467.5 425.5,467.5C 425.5,433.833 425.5,400.167 425.5,366.5 Z"/></g>
<g><path style="opacity:1" fill="#eac8ca" d="M 424.5,366.5 C 424.833,366.5 425.167,366.5 425.5,366.5C 425.5,400.167 425.5,433.833 425.5,467.5C 546.167,467.5 666.833,467.5 787.5,467.5C 787.263,466.209 787.596,465.209 788.5,464.5C 788.768,466.099 788.434,467.432 787.5,468.5C 666.5,468.5 545.5,468.5 424.5,468.5C 424.5,434.5 424.5,400.5 424.5,366.5 Z"/></g>
<g><path style="opacity:1" fill="#c8252f" d="M 424.5,468.5 C 545.5,468.5 666.5,468.5 787.5,468.5C 786.197,504.337 779.531,539.003 767.5,572.5C 653.167,572.5 538.833,572.5 424.5,572.5C 424.5,537.833 424.5,503.167 424.5,468.5 Z"/></g>
<g><path style="opacity:1" fill="#908e8f" d="M 289.5,573.5 C 250.819,572.839 212.485,573.506 174.5,575.5C 173.596,574.791 173.263,573.791 173.5,572.5C 212.337,572.168 251.004,572.501 289.5,573.5 Z"/></g>
<g><path style="opacity:1" fill="#908e8f" d="M 415.5,574.5 C 377.167,573.167 338.833,573.167 300.5,574.5C 299.957,574.44 299.624,574.107 299.5,573.5C 338.5,572.167 377.5,572.167 416.5,573.5C 416.376,574.107 416.043,574.44 415.5,574.5 Z"/></g>
<g><path style="opacity:1" fill="#fefefe" d="M 289.5,573.5 C 270.239,632.118 251.072,690.784 232,749.5C 212.525,691.576 193.359,633.576 174.5,575.5C 212.485,573.506 250.819,572.839 289.5,573.5 Z"/></g>
<g><path style="opacity:1" fill="#fefefe" d="M 415.5,574.5 C 396.445,632.831 377.279,691.164 358,749.5C 338.73,691.191 319.564,632.858 300.5,574.5C 338.833,573.167 377.167,573.167 415.5,574.5 Z"/></g>
<g><path style="opacity:1" fill="#d6b0b2" d="M 424.5,572.5 C 538.833,572.5 653.167,572.5 767.5,572.5C 767.5,572.833 767.5,573.167 767.5,573.5C 653.5,573.5 539.5,573.5 425.5,573.5C 425.5,607.167 425.5,640.833 425.5,674.5C 425.167,674.5 424.833,674.5 424.5,674.5C 424.5,640.5 424.5,606.5 424.5,572.5 Z"/></g>
<g><path style="opacity:1" fill="#fefefe" d="M 767.5,573.5 C 755.827,610.522 738.16,644.188 714.5,674.5C 618.167,674.5 521.833,674.5 425.5,674.5C 425.5,640.833 425.5,607.167 425.5,573.5C 539.5,573.5 653.5,573.5 767.5,573.5 Z"/></g>
<g><path style="opacity:1" fill="#b63b41" d="M 424.5,674.5 C 424.833,674.5 425.167,674.5 425.5,674.5C 521.833,674.5 618.167,674.5 714.5,674.5C 714.5,674.833 714.5,675.167 714.5,675.5C 618.167,675.5 521.833,675.5 425.5,675.5C 425.832,721.336 425.499,767.003 424.5,812.5C 424.5,766.5 424.5,720.5 424.5,674.5 Z"/></g>
<g><path style="opacity:1" fill="#c8252f" d="M 714.5,675.5 C 646.217,763.156 556.217,811.323 444.5,820C 437.842,820.5 431.175,820.666 424.5,820.5C 424.5,817.833 424.5,815.167 424.5,812.5C 425.499,767.003 425.832,721.336 425.5,675.5C 521.833,675.5 618.167,675.5 714.5,675.5 Z"/></g>
<g><path style="opacity:1" fill="#908e8e" d="M 168.5,739.5 C 170.027,739.427 171.027,740.094 171.5,741.5C 169.973,741.573 168.973,740.906 168.5,739.5 Z"/></g>
<g><path style="opacity:1" fill="#929091" d="M 176.5,746.5 C 178.027,746.427 179.027,747.094 179.5,748.5C 177.973,748.573 176.973,747.906 176.5,746.5 Z"/></g>
</svg>
